svgs/regular/clouds.svg

<svg xmlns="http://www.w3.org/2000/svg" viewBox="0 0 640 512"><!-- Font Awesome Pro 6.0.0-alpha2 by @fontawesome - https://fontawesome.com License - https://fontawesome.com/license (Commercial License) --><path d="M538.855 296.25C525.352 253.75 486.094 224 440.086 224C426.583 224 413.331 226.625 400.828 231.75C399.078 229.625 396.827 228.125 394.827 226.25C411.83 207.25 421.332 182.625 421.332 157.25C421.332 100 374.698 53.25 317.312 53.25C310.31 53.25 303.434 54 296.683 55.375C275.554 21.625 238.046 0 197.288 0C146.153 0 101.27 33.875 86.016 81.625C37.257 90.125 0 132.75 0 184C0 241.25 46.759 288 104.02 288H194.788C193.663 293.75 192.538 299.375 192.162 305.375C153.53 322.375 127.9 360.5 127.9 404C127.9 463.5 176.284 512 235.921 512H531.979C591.615 512 640 463.5 640 404C640.125 346.75 595.241 299.75 538.855 296.25ZM104.02 240C73.139 240 48.009 214.875 48.009 184C48.009 153.625 72.389 128.75 102.77 128L126.15 128.75L129.15 107.5C133.901 73.625 163.282 48 197.288 48C226.294 48 251.674 65.75 261.926 93L270.928 117L294.307 106.375C301.809 103 309.435 101.25 317.312 101.25C348.193 101.25 373.323 126.375 373.323 157.25C373.323 173.125 366.571 187.75 354.444 198.75L353.194 199.875C340.191 195.125 326.314 192 311.811 192C272.803 192 238.046 210.875 216.167 240H104.02ZM532.104 464H236.046C202.915 464 176.034 437.125 176.034 404C176.034 376 195.163 352 222.418 345.75L243.297 340.875L240.422 316C240.297 314.75 240.047 313.375 240.047 312C240.047 272.25 272.303 240 312.061 240C337.316 240 360.32 253.125 373.448 275.125L386.825 297.25L407.83 282.25C417.456 275.5 428.584 272 440.086 272C468.716 272 492.471 293.75 495.347 322.375L497.597 344H532.104C565.235 344 592.115 370.875 592.115 404S565.235 464 532.104 464Z"/></svg>

<svg xmlns="http://www.w3.org/2000/svg" viewBox="0 0 640 512"><!-- Font Awesome Pro 5.15.1 by @fontawesome - https://fontawesome.com License - https://fontawesome.com/license (Commercial License) --><path d="M538.7 296.2C525.2 253.8 486 224 440 224c-13.5 0-26.8 2.6-39.2 7.7-1.8-2.1-4.1-3.6-6-5.5 17-19 26.5-43.6 26.5-68.9 0-57.3-46.7-104-104-104-7 0-13.9.7-20.7 2.1C275.5 21.6 238 0 197.3 0c-51.2 0-96 33.9-111.3 81.6C37.2 90.1 0 132.8 0 184c0 57.3 46.7 104 104 104h90.8c-1.2 5.7-2.3 11.4-2.7 17.4-38.6 17-64.2 55.1-64.2 98.6 0 59.5 48.4 108 108 108h296c59.6 0 108-48.5 108-108 .1-57.3-44.8-104.3-101.2-107.8zM104 240c-30.9 0-56-25.1-56-56 0-30.4 24.4-55.3 54.7-56l23.4.8 3-21.3c4.8-33.9 34.2-59.5 68.2-59.5 29 0 54.3 17.7 64.6 45l9 24 23.3-10.6c7.5-3.4 15.2-5.1 23-5.1 30.9 0 56 25.1 56 56 0 15.8-6.7 30.5-18.8 41.4l-1.3 1.2c-13-4.8-26.8-7.9-41.3-7.9-39.1 0-73.8 18.9-95.7 48H104zm428 224H236c-33.1 0-60-26.9-60-60 0-28 19.1-52 46.4-58.3l20.8-4.8-2.8-24.9c-.2-1.3-.4-2.6-.4-4 0-39.7 32.3-72 72-72 25.2 0 48.2 13.1 61.4 35.1l13.3 22.1 21.1-14.9c9.6-6.8 20.7-10.3 32.2-10.3 28.6 0 52.4 21.7 55.3 50.4l2.2 21.6H532c33.1 0 60 26.9 60 60s-26.9 60-60 60z"/></svg>
